outputs/icons/navigation/columns_sharp.svg

<svg xmlns="http://www.w3.org/2000/svg" width="1200" height="1200" fill="none"><g clip-path="url(#a)"><path fill="#000" d="M50 1000h300V200H50zm800-800v800h300V200zm-400 800h300V200H450z"/></g><defs><clipPath id="a"><path fill="#fff" d="M0 0h1200v1200H0z"/></clipPath></defs></svg>

<svg width="1200" height="1200" viewBox="0 0 1200 1200" fill="none" xmlns="http://www.w3.org/2000/svg"><g clip-path="url(#clip0_652_1639)"><path d="M50 1000H350V200H50V1000ZM850 200V1000H1150V200H850ZM450 1000H750V200H450V1000Z" fill="#1D1E23"/></g><defs><clipPath id="clip0_652_1639"><path width="24" fill="white" d="M0 0H1200V1200H0V0z"/></clipPath></defs></svg>
